static/img/kroki/2ebca74db612474e6cdca45f7cbf3e10.svg

<?xml version="1.0" encoding="us-ascii" standalone="no"?><svg xmlns="http://www.w3.org/2000/svg" xmlns:xlink="http://www.w3.org/1999/xlink" contentStyleType="text/css" height="252px" preserveAspectRatio="none" style="width:692px;height:252px;" version="1.1" viewBox="0 0 692 252" width="692px" zoomAndPan="magnify"><defs/><g><!--class aws_sagemaker_artifact--><g id="elem_aws_sagemaker_artifact"><rect codeLine="22" fill="#3D176E" height="39.7891" id="aws_sagemaker_artifact" rx="2.5" ry="2.5" style="stroke:#000D19;stroke-width:0.5;" width="245" x="7" y="206.58"/><ellipse cx="22" cy="226.4745" fill="#ADD1B2" rx="11" ry="11" style="stroke:#181818;stroke-width:1.0;"/><path d="M24.9688,232.1152 Q24.3906,232.412 23.75,232.5527 Q23.1094,232.7089 22.4063,232.7089 Q19.9063,232.7089 18.5781,231.0683 Q17.2656,229.412 17.2656,226.287 Q17.2656,223.162 18.5781,221.5058 Q19.9063,219.8495 22.4063,219.8495 Q23.1094,219.8495 23.75,220.0058 Q24.4063,220.162 24.9688,220.4589 L24.9688,223.1777 Q24.3438,222.5995 23.75,222.3339 Q23.1563,222.0527 22.5313,222.0527 Q21.1875,222.0527 20.5,223.1308 Q19.8125,224.1933 19.8125,226.287 Q19.8125,228.3808 20.5,229.4589 Q21.1875,230.5214 22.5313,230.5214 Q23.1563,230.5214 23.75,230.2558 Q24.3438,229.9745 24.9688,229.3964 L24.9688,232.1152 Z " fill="#000000"/><text fill="#D9B8FF" font-family="Helvetica" font-size="17" lengthAdjust="spacing" textLength="203" x="41" y="232.3598">aws_sagemaker_artifact</text></g><!--class aws_sagemaker_code_repository--><g id="elem_aws_sagemaker_code_repository"><rect codeLine="24" fill="#3D176E" height="39.7891" id="aws_sagemaker_code_repository" rx="2.5" ry="2.5" style="stroke:#000D19;stroke-width:0.5;" width="316" x="205.5" y="7"/><ellipse cx="220.5" cy="26.8945" fill="#ADD1B2" rx="11" ry="11" style="stroke:#181818;stroke-width:1.0;"/><path d="M223.4688,32.5352 Q222.8906,32.832 222.25,32.9727 Q221.6094,33.1289 220.9063,33.1289 Q218.4063,33.1289 217.0781,31.4883 Q215.7656,29.832 215.7656,26.707 Q215.7656,23.582 217.0781,21.9258 Q218.4063,20.2695 220.9063,20.2695 Q221.6094,20.2695 222.25,20.4258 Q222.9063,20.582 223.4688,20.8789 L223.4688,23.5977 Q222.8438,23.0195 222.25,22.7539 Q221.6563,22.4727 221.0313,22.4727 Q219.6875,22.4727 219,23.5508 Q218.3125,24.6133 218.3125,26.707 Q218.3125,28.8008 219,29.8789 Q219.6875,30.9414 221.0313,30.9414 Q221.6563,30.9414 222.25,30.6758 Q222.8438,30.3945 223.4688,29.8164 L223.4688,32.5352 Z " fill="#000000"/><text fill="#D9B8FF" font-family="Helvetica" font-size="17" lengthAdjust="spacing" textLength="274" x="239.5" y="32.7798">aws_sagemaker_code_repository</text></g><!--class aws_sagemaker_domain--><g id="elem_aws_sagemaker_domain"><rect codeLine="26" fill="#3D176E" height="39.7891" id="aws_sagemaker_domain" rx="2.5" ry="2.5" style="stroke:#000D19;stroke-width:0.5;" width="248" x="94.5" y="106.79"/><ellipse cx="109.5" cy="126.6845" fill="#ADD1B2" rx="11" ry="11" style="stroke:#181818;stroke-width:1.0;"/><path d="M112.4688,132.3252 Q111.8906,132.622 111.25,132.7627 Q110.6094,132.9189 109.9063,132.9189 Q107.4063,132.9189 106.0781,131.2783 Q104.7656,129.622 104.7656,126.497 Q104.7656,123.372 106.0781,121.7158 Q107.4063,120.0595 109.9063,120.0595 Q110.6094,120.0595 111.25,120.2158 Q111.9063,120.372 112.4688,120.6689 L112.4688,123.3877 Q111.8438,122.8095 111.25,122.5439 Q110.6563,122.2627 110.0313,122.2627 Q108.6875,122.2627 108,123.3408 Q107.3125,124.4033 107.3125,126.497 Q107.3125,128.5908 108,129.6689 Q108.6875,130.7314 110.0313,130.7314 Q110.6563,130.7314 111.25,130.4658 Q111.8438,130.1845 112.4688,129.6064 L112.4688,132.3252 Z " fill="#000000"/><text fill="#D9B8FF" font-family="Helvetica" font-size="17" lengthAdjust="spacing" textLength="206" x="128.5" y="132.5698">aws_sagemaker_domain</text></g><!--class aws_sagemaker_notebook--><g id="elem_aws_sagemaker_notebook"><rect codeLine="28" fill="#3D176E" height="39.7891" id="aws_sagemaker_notebook" rx="2.5" ry="2.5" style="stroke:#000D19;stroke-width:0.5;" width="263" x="377" y="106.79"/><ellipse cx="392" cy="126.6845" fill="#ADD1B2" rx="11" ry="11" style="stroke:#181818;stroke-width:1.0;"/><path d="M394.9688,132.3252 Q394.3906,132.622 393.75,132.7627 Q393.1094,132.9189 392.4063,132.9189 Q389.9063,132.9189 388.5781,131.2783 Q387.2656,129.622 387.2656,126.497 Q387.2656,123.372 388.5781,121.7158 Q389.9063,120.0595 392.4063,120.0595 Q393.1094,120.0595 393.75,120.2158 Q394.4063,120.372 394.9688,120.6689 L394.9688,123.3877 Q394.3438,122.8095 393.75,122.5439 Q393.1563,122.2627 392.5313,122.2627 Q391.1875,122.2627 390.5,123.3408 Q389.8125,124.4033 389.8125,126.497 Q389.8125,128.5908 390.5,129.6689 Q391.1875,130.7314 392.5313,130.7314 Q393.1563,130.7314 393.75,130.4658 Q394.3438,130.1845 394.9688,129.6064 L394.9688,132.3252 Z " fill="#000000"/><text fill="#D9B8FF" font-family="Helvetica" font-size="17" lengthAdjust="spacing" textLength="221" x="411" y="132.5698">aws_sagemaker_notebook</text></g><!--class aws_sagemaker_trial--><g id="elem_aws_sagemaker_trial"><rect codeLine="30" fill="#3D176E" height="39.7891" id="aws_sagemaker_trial" rx="2.5" ry="2.5" style="stroke:#000D19;stroke-width:0.5;" width="219" x="435" y="206.58"/><ellipse cx="450" cy="226.4745" fill="#ADD1B2" rx="11" ry="11" style="stroke:#181818;stroke-width:1.0;"/><path d="M452.9688,232.1152 Q452.3906,232.412 451.75,232.5527 Q451.1094,232.7089 450.4063,232.7089 Q447.9063,232.7089 446.5781,231.0683 Q445.2656,229.412 445.2656,226.287 Q445.2656,223.162 446.5781,221.5058 Q447.9063,219.8495 450.4063,219.8495 Q451.1094,219.8495 451.75,220.0058 Q452.4063,220.162 452.9688,220.4589 L452.9688,223.1777 Q452.3438,222.5995 451.75,222.3339 Q451.1563,222.0527 450.5313,222.0527 Q449.1875,222.0527 448.5,223.1308 Q447.8125,224.1933 447.8125,226.287 Q447.8125,228.3808 448.5,229.4589 Q449.1875,230.5214 450.5313,230.5214 Q451.1563,230.5214 451.75,230.2558 Q452.3438,229.9745 452.9688,229.3964 L452.9688,232.1152 Z " fill="#000000"/><text fill="#D9B8FF" font-family="Helvetica" font-size="17" lengthAdjust="spacing" textLength="177" x="469" y="232.3598">aws_sagemaker_trial</text></g><!--link aws_sagemaker_code_repository to aws_sagemaker_artifact--><g id="link_aws_sagemaker_code_repository_aws_sagemaker_artifact"><path codeLine="32" d="M237.43,47.29 C170.37,60.46 97.67,80.31 77.5,106.79 C55.08,136.23 82.94,176.84 105.72,202.1 " fill="none" id="aws_sagemaker_code_repository-to-aws_sagemaker_artifact" style="stroke:#1A83AF;stroke-width:2.0;"/><polygon fill="#1A83AF" points="108.61,205.33,105.4492,196.0021,105.2204,201.6543,99.5682,201.4255,108.61,205.33" style="stroke:#1A83AF;stroke-width:2.0;"/></g><!--link aws_sagemaker_code_repository to aws_sagemaker_domain--><g id="link_aws_sagemaker_code_repository_aws_sagemaker_domain"><path codeLine="33" d="M334.85,47.22 C311.02,63.29 277.06,86.19 251.98,103.11 " fill="none" id="aws_sagemaker_code_repository-to-aws_sagemaker_domain" style="stroke:#1A83AF;stroke-width:2.0;"/><polygon fill="#1A83AF" points="248.09,106.41,257.7865,104.6844,252.2326,103.6102,253.3068,98.0563,248.09,106.41" style="stroke:#1A83AF;stroke-width:2.0;"/></g><!--link aws_sagemaker_code_repository to aws_sagemaker_notebook--><g id="link_aws_sagemaker_code_repository_aws_sagemaker_notebook"><path codeLine="34" d="M392.15,47.22 C415.98,63.29 449.94,86.19 475.02,103.11 " fill="none" id="aws_sagemaker_code_repository-to-aws_sagemaker_notebook" style="stroke:#1A83AF;stroke-width:2.0;"/><polygon fill="#1A83AF" points="478.91,106.41,473.6932,98.0563,474.7674,103.6102,469.2135,104.6844,478.91,106.41" style="stroke:#1A83AF;stroke-width:2.0;"/></g><!--link aws_sagemaker_code_repository to aws_sagemaker_trial--><g id="link_aws_sagemaker_code_repository_aws_sagemaker_trial"><path codeLine="35" d="M495.06,47.22 C563.42,60.23 636.92,79.95 657.5,106.79 C685.29,143.02 633.83,180.46 591.56,203.37 " fill="none" id="aws_sagemaker_code_repository-to-aws_sagemaker_trial" style="stroke:#1A83AF;stroke-width:2.0;"/><polygon fill="#1A83AF" points="587.46,206.09,597.2832,205.3792,591.8706,203.7348,593.5149,198.3222,587.46,206.09" style="stroke:#1A83AF;stroke-width:2.0;"/></g><!--link aws_sagemaker_domain to aws_sagemaker_artifact--><g id="link_aws_sagemaker_domain_aws_sagemaker_artifact"><path codeLine="36" d="M200.92,147.01 C186.53,162.81 166.14,185.22 150.82,202.05 " fill="none" id="aws_sagemaker_domain-to-aws_sagemaker_artifact" style="stroke:#1A83AF;stroke-width:2.0;"/><polygon fill="#1A83AF" points="148.05,205.2,157.0684,201.2416,151.4176,201.5042,151.1551,195.8534,148.05,205.2" style="stroke:#1A83AF;stroke-width:2.0;"/></g><!--link aws_sagemaker_domain to aws_sagemaker_trial--><g id="link_aws_sagemaker_domain_aws_sagemaker_trial"><path codeLine="37" d="M282.91,147.01 C338.18,163.59 417.69,187.44 474.52,204.48 " fill="none" id="aws_sagemaker_domain-to-aws_sagemaker_trial" style="stroke:#1A83AF;stroke-width:2.0;"/><polygon fill="#1A83AF" points="478.95,206.11,471.4702,199.7028,474.1589,204.6798,469.1819,207.3686,478.95,206.11" style="stroke:#1A83AF;stroke-width:2.0;"/></g><!--SRC=[dP91Jy9048Nl_8fDE9DGYG8Naqf2z4ACU3E6JBkpi6cxqymE4ZJ-Tw6eMLiAaUk-RsRUUzcLrQYmA6Mh2YmIPD_ncNKbC1GgPgRDX79YrJK6p61O5wVav2mmWmBLFUPlA3Q5El6yicdcq7jr5KXta6PBfhNJX_N2uFnEGYS1DSd1-rY4RR8M3CpeSJ8ofaxMbtO7EXhUO0CZriZVIB_Vrz6uZfmzTJBtBp6txwYYiBGP2JPiDavKr4cNUo8msGZwexTwV0IjhLkgw-3jwU297VAVz_aAD6tsj87SXsUy82F9jiH98nMEHzeCZy8FRN2wRqx1nYyyBB6037a1BDP0AkgZytaKI4dZWh4aRuLusyffAi2wLjdjAak8ibPWzmqXhzJJztiltIWU3UBfQ- -s9Slb6muXBf__INdvXgg6pj5g_v_y_61rxWi0]--></g></svg>

<svg xmlns="http://www.w3.org/2000/svg" width="692" height="252" preserveAspectRatio="none" style="width:692px;height:252px"><rect width="245" height="39.789" x="7" y="206.58" fill="#3D176E" rx="2.5" ry="2.5" style="stroke:#000d19;stroke-width:.5"/><circle cx="22" cy="226.475" r="11" fill="#ADD1B2" style="stroke:#181818;stroke-width:1"/><path d="M24.969 232.115q-.578.297-1.219.438-.64.156-1.344.156-2.5 0-3.828-1.64-1.312-1.657-1.312-4.782t1.312-4.781q1.328-1.656 3.828-1.656.703 0 1.344.156.656.156 1.219.453v2.719q-.625-.578-1.219-.844-.594-.281-1.219-.281-1.343 0-2.031 1.078-.688 1.062-.688 3.156 0 2.094.688 3.172.688 1.062 2.031 1.062.625 0 1.219-.265.594-.281 1.219-.86v2.72Z"/><text x="41" y="232.36" fill="#D9B8FF" font-family="Helvetica" font-size="17" textLength="203">aws_sagemaker_artifact</text><rect width="316" height="39.789" x="205.5" y="7" fill="#3D176E" rx="2.5" ry="2.5" style="stroke:#000d19;stroke-width:.5"/><circle cx="220.5" cy="26.895" r="11" fill="#ADD1B2" style="stroke:#181818;stroke-width:1"/><path d="M223.469 32.535q-.578.297-1.219.438-.64.156-1.344.156-2.5 0-3.828-1.64-1.312-1.657-1.312-4.782t1.312-4.781q1.328-1.656 3.828-1.656.703 0 1.344.156.656.156 1.219.453v2.719q-.625-.578-1.219-.844-.594-.281-1.219-.281-1.344 0-2.031 1.078-.688 1.062-.688 3.156 0 2.094.688 3.172.688 1.062 2.031 1.062.625 0 1.219-.265.594-.281 1.219-.86v2.72Z"/><text x="239.5" y="32.78" fill="#D9B8FF" font-family="Helvetica" font-size="17" textLength="274">aws_sagemaker_code_repository</text><rect width="248" height="39.789" x="94.5" y="106.79" fill="#3D176E" rx="2.5" ry="2.5" style="stroke:#000d19;stroke-width:.5"/><circle cx="109.5" cy="126.684" r="11" fill="#ADD1B2" style="stroke:#181818;stroke-width:1"/><path d="M112.469 132.325q-.578.297-1.219.438-.64.156-1.344.156-2.5 0-3.828-1.64-1.312-1.657-1.312-4.782t1.312-4.781q1.328-1.656 3.828-1.656.703 0 1.344.156.656.156 1.219.453v2.719q-.625-.579-1.219-.844-.594-.281-1.219-.281-1.344 0-2.031 1.078-.688 1.062-.688 3.156 0 2.094.688 3.172.688 1.062 2.031 1.062.625 0 1.219-.265.594-.281 1.219-.86v2.72Z"/><text x="128.5" y="132.57" fill="#D9B8FF" font-family="Helvetica" font-size="17" textLength="206">aws_sagemaker_domain</text><rect width="263" height="39.789" x="377" y="106.79" fill="#3D176E" rx="2.5" ry="2.5" style="stroke:#000d19;stroke-width:.5"/><circle cx="392" cy="126.684" r="11" fill="#ADD1B2" style="stroke:#181818;stroke-width:1"/><path d="M394.969 132.325q-.578.297-1.219.438-.64.156-1.344.156-2.5 0-3.828-1.64-1.312-1.657-1.312-4.782t1.312-4.781q1.328-1.656 3.828-1.656.703 0 1.344.156.656.156 1.219.453v2.719q-.625-.579-1.219-.844-.594-.281-1.219-.281-1.344 0-2.031 1.078-.688 1.062-.688 3.156 0 2.094.688 3.172.688 1.062 2.031 1.062.625 0 1.219-.265.594-.281 1.219-.86v2.72Z"/><text x="411" y="132.57" fill="#D9B8FF" font-family="Helvetica" font-size="17" textLength="221">aws_sagemaker_notebook</text><rect width="219" height="39.789" x="435" y="206.58" fill="#3D176E" rx="2.5" ry="2.5" style="stroke:#000d19;stroke-width:.5"/><circle cx="450" cy="226.475" r="11" fill="#ADD1B2" style="stroke:#181818;stroke-width:1"/><path d="M452.969 232.115q-.578.297-1.219.438-.64.156-1.344.156-2.5 0-3.828-1.64-1.312-1.657-1.312-4.782t1.312-4.781q1.328-1.656 3.828-1.656.703 0 1.344.156.656.156 1.219.453v2.719q-.625-.578-1.219-.844-.594-.281-1.219-.281-1.344 0-2.031 1.078-.688 1.062-.688 3.156 0 2.094.688 3.172.688 1.062 2.031 1.062.625 0 1.219-.265.594-.281 1.219-.86v2.72Z"/><text x="469" y="232.36" fill="#D9B8FF" font-family="Helvetica" font-size="17" textLength="177">aws_sagemaker_trial</text><path fill="none" d="M237.43 47.29C170.37 60.46 97.67 80.31 77.5 106.79c-22.42 29.44 5.44 70.05 28.22 95.31" style="stroke:#1a83af;stroke-width:2"/><path fill="#1A83AF" d="m108.61 205.33-3.16-9.328-.23 5.652-5.652-.228 9.042 3.904z" style="stroke:#1a83af;stroke-width:2"/><path fill="none" d="M334.85 47.22c-23.83 16.07-57.79 38.97-82.87 55.89" style="stroke:#1a83af;stroke-width:2"/><path fill="#1A83AF" d="m248.09 106.41 9.696-1.726-5.553-1.074 1.074-5.554-5.217 8.354z" style="stroke:#1a83af;stroke-width:2"/><path fill="none" d="M392.15 47.22c23.83 16.07 57.79 38.97 82.87 55.89" style="stroke:#1a83af;stroke-width:2"/><path fill="#1A83AF" d="m478.91 106.41-5.217-8.354 1.074 5.554-5.553 1.074 9.696 1.726z" style="stroke:#1a83af;stroke-width:2"/><path fill="none" d="M495.06 47.22c68.36 13.01 141.86 32.73 162.44 59.57 27.79 36.23-23.67 73.67-65.94 96.58" style="stroke:#1a83af;stroke-width:2"/><path fill="#1A83AF" d="m587.46 206.09 9.823-.71-5.412-1.645 1.644-5.413-6.055 7.768z" style="stroke:#1a83af;stroke-width:2"/><path fill="none" d="M200.92 147.01c-14.39 15.8-34.78 38.21-50.1 55.04" style="stroke:#1a83af;stroke-width:2"/><path fill="#1A83AF" d="m148.05 205.2 9.018-3.958-5.65.262-.263-5.65-3.105 9.346z" style="stroke:#1a83af;stroke-width:2"/><path fill="none" d="M282.91 147.01c55.27 16.58 134.78 40.43 191.61 57.47" style="stroke:#1a83af;stroke-width:2"/><path fill="#1A83AF" d="m478.95 206.11-7.48-6.407 2.689 4.977-4.977 2.689 9.768-1.259z" style="stroke:#1a83af;stroke-width:2"/></svg>
